X:30
T:Polka de Chabassier
C:trad
A:Limousin
O:France
Z:S. Piron
M:2/4
L:1/8
Q:1/4=120
K:C
B/2d/2|:gd B/2G/2B/2d/2|cA=F2|cA =F/2A/2F/2A/2|1ec/2e/2 dB/2d/2:|2B2 z d|
|:B/2G/2B/2d/2 cA|A/2F/2A/2c/2 Bd/2B/2|GB AB/2c/2|1d/2c/2B/2A/2 BG:|2d/2c/2B/2A/2 GB/2d/2||
